docs/media/cursor/cur7.svg

<?xml version="1.0" encoding="UTF-8"?>
<!DOCTYPE svg  PUBLIC '-//W3C//DTD SVG 1.1//EN'  'http://www.w3.org/Graphics/SVG/1.1/DTD/svg11.dtd'>
<svg version="1.1" viewBox="0 0 640 640" xmlns="http://www.w3.org/2000/svg" xmlns:xlink="http://www.w3.org/1999/xlink">
<defs>
<path id="a" d="m420 322.9c0 69.99-57.15 126.81-127.54 126.81s-127.53-56.82-127.53-126.81 57.14-126.81 127.53-126.81 127.54 56.82 127.54 126.81z"/>
<path id="c" d="m480.46 320c0 104.42-84.24 189.2-188 189.2s-188-84.78-188-189.2 84.24-189.19 188-189.19 188 84.77 188 189.19z"/>
<path id="b" d="m448.46 318.78c0.68 87.32-68.66 158.76-154.76 159.44-86.09 0.67-156.55-69.68-157.23-157-0.69-87.32 68.66-158.76 154.75-159.44 86.1-0.67 156.56 69.68 157.24 157z"/>
</defs>
<use fill="#1371e2" xlink:href="#a"/>
<use fill-opacity="0" stroke="#1270e2" stroke-opacity=".44" stroke-width="9" xlink:href="#a"/>
<use fill-opacity="0" stroke="#f1f0e3" stroke-width="3" xlink:href="#c"/>
<use fill-opacity="0" stroke="#f1f0e3" stroke-width="5" xlink:href="#b"/>
</svg>

<?xml version="1.0" encoding="UTF-8" standalone="no"?>
<!DOCTYPE svg PUBLIC "-//W3C//DTD SVG 1.1//EN" "http://www.w3.org/Graphics/SVG/1.1/DTD/svg11.dtd">
<svg version="1.1" xmlns="http://www.w3.org/2000/svg" xmlns:xlink="http://www.w3.org/1999/xlink" preserveAspectRatio="xMidYMid meet" viewBox="0 0 640 640" width="640" height="640"><defs><path d="M420 322.9C420 392.89 362.85 449.71 292.46 449.71C222.07 449.71 164.93 392.89 164.93 322.9C164.93 252.91 222.07 196.09 292.46 196.09C362.85 196.09 420 252.91 420 322.9Z" id="c2YLvb5to"></path><path d="M480.46 320C480.46 424.42 396.22 509.2 292.46 509.2C188.7 509.2 104.46 424.42 104.46 320C104.46 215.58 188.7 130.81 292.46 130.81C396.22 130.81 480.46 215.58 480.46 320Z" id="aebFVdyHi"></path><path d="M448.46 318.78C449.14 406.1 379.8 477.54 293.7 478.22C207.61 478.89 137.15 408.54 136.47 321.22C135.78 233.9 205.13 162.46 291.22 161.78C377.32 161.11 447.78 231.46 448.46 318.78Z" id="d5jhVYx51"></path></defs><g><g><g><use xlink:href="#c2YLvb5to" opacity="1" fill="#1371e2" fill-opacity="1"></use><g><use xlink:href="#c2YLvb5to" opacity="1" fill-opacity="0" stroke="#1270e2" stroke-width="9" stroke-opacity="0.44"></use></g></g><g><g><use xlink:href="#aebFVdyHi" opacity="1" fill-opacity="0" stroke="#f1f0e3" stroke-width="3" stroke-opacity="1"></use></g></g><g><g><use xlink:href="#d5jhVYx51" opacity="1" fill-opacity="0" stroke="#f1f0e3" stroke-width="5" stroke-opacity="1"></use></g></g></g></g></svg>
